svg/cameraPlus.svg

<svg width="284" height="284" viewBox="0 0 284 284" fill="none" xmlns="http://www.w3.org/2000/svg">
<path fill-rule="evenodd" clip-rule="evenodd" d="M130.843 121.724C121.992 121.724 114.464 124.83 108.251 131.043C102.038 137.256 98.9319 144.787 98.9319 153.634C98.9319 162.296 102.083 169.73 108.392 175.943C114.698 182.155 122.181 185.262 130.843 185.262C139.5 185.262 146.939 182.155 153.151 175.943C159.364 169.73 162.47 162.296 162.47 153.634C162.47 144.787 159.364 137.256 153.151 131.043C146.939 124.83 139.5 121.724 130.843 121.724Z" fill="#1A1919"/>
<path fill-rule="evenodd" clip-rule="evenodd" d="M226.891 130.151C199.718 130.151 177.69 108.123 177.69 80.9504C177.69 77.4714 178.056 74.0794 178.742 70.8044C175.744 68.6154 172.86 67.5054 170.095 67.5054H91.3076C84.9056 67.5054 77.7536 73.7184 69.8466 86.1444H50.3616C43.7686 86.1444 38.1706 88.4514 33.5596 93.0624C28.9436 97.6774 26.6416 103.277 26.6416 109.864V212.654C26.6416 219.056 28.9926 224.611 33.7016 229.314C38.4036 234.022 43.9596 236.375 50.3616 236.375H137.657C137.922 226.219 138.01 216.064 137.807 205.91C135.274 206.262 132.671 206.441 129.996 206.441C115.312 206.441 102.745 201.265 92.2966 190.909C81.8476 180.558 76.6236 168.133 76.6236 153.634C76.6236 138.95 81.8476 126.432 92.2966 116.076C102.745 105.725 115.312 100.545 129.996 100.545C144.491 100.545 156.915 105.725 167.271 116.076C177.622 126.432 182.803 138.95 182.803 153.634C182.803 168.133 177.622 180.558 167.271 190.909C158.826 199.354 149.004 204.352 137.807 205.91C138.01 216.064 137.922 226.219 137.657 236.375H211.041C217.629 236.375 223.228 234.022 227.844 229.314C232.455 224.611 234.762 219.056 234.762 212.654V129.517C232.198 129.929 229.571 130.151 226.891 130.151Z" fill="#1A1919"/>
<path fill-rule="evenodd" clip-rule="evenodd" d="M257.987 70.164H235.623V47.8H218.157V70.164H195.793V87.629H218.157V109.994H235.623V87.629H257.987V70.164Z" fill="#1A1919"/>
</svg>

<svg width="284" height="284" viewBox="0 0 284 284" xmlns="http://www.w3.org/2000/svg">
    <g fill="#1A1918" fill-rule="evenodd">
        <path d="M130.843 121.724c-8.851 0-16.38 3.106-22.592 9.32-6.213 6.212-9.32 13.743-9.32 22.59 0 8.662 3.152 16.096 9.46 22.31 6.307 6.211 13.79 9.318 22.452 9.318 8.657 0 16.096-3.107 22.308-9.319 6.213-6.213 9.319-13.647 9.319-22.309 0-8.847-3.106-16.378-9.32-22.59-6.211-6.214-13.65-9.32-22.307-9.32"/>
        <path d="M226.89 130.151c-27.172 0-49.2-22.028-49.2-49.2 0-3.48.365-6.872 1.052-10.147-2.998-2.189-5.882-3.299-8.647-3.299H91.308c-6.403 0-13.555 6.213-21.462 18.64H50.362c-6.592 0-12.19 2.306-16.801 6.917-4.617 4.615-6.919 10.215-6.919 16.802v102.79c0 6.402 2.352 11.957 7.06 16.66 4.703 4.708 10.258 7.061 16.66 7.061h87.295c.266-10.156.353-20.31.15-30.465a56.685 56.685 0 0 1-7.81.531c-14.685 0-27.252-5.176-37.7-15.532-10.449-10.35-15.672-22.776-15.672-37.275 0-14.684 5.224-27.202 15.672-37.558 10.448-10.35 23.015-15.53 37.7-15.53 14.494 0 26.918 5.18 37.274 15.53 10.351 10.356 15.532 22.874 15.532 37.558 0 14.5-5.18 26.924-15.531 37.275-8.445 8.445-18.267 13.443-29.464 15.001.203 10.154.115 20.31-.15 30.465h73.383c6.589 0 12.188-2.353 16.804-7.06 4.61-4.704 6.918-10.259 6.918-16.66v-83.138a49.565 49.565 0 0 1-7.871.634"/>
        <polygon points="257.9875 70.164 235.6235 70.164 235.6235 47.8 218.1575 47.8 218.1575 70.164 195.7935 70.164 195.7935 87.629 218.1575 87.629 218.1575 109.994 235.6235 109.994 235.6235 87.629 257.9875 87.629"/>
    </g>
</svg>
